X:1
T:Title
%%score { ( 1 3 ) | ( 2 4 ) }
L:1/8
M:3/4
K:Bb
V:1 treble nm="Grand Piano"
V:3 treble 
V:2 bass 
V:4 bass 
V:1
 z2 z2[Q:1/4=110] [B,DF]2 | [DF]2 [FB]2 c2 | d2 c2 [FB]2 | [EG]2 A2 [B,GB]2 | [DF]4 [B,DF]2 | %5
 [DF]2 [FB]2 c2 | d2 c2 [B,FB]2 | [EG]2 [=Ed]2 c2 | c4 F2 | [DF]2 [FB]2 c2 | d2 c2 [FB]2 | %11
 [EG]2 [FA]2 [GB]2 | F4 B2 | d2 c2 d2 | f2 z2 [EGc]2 | F2- [Fd]2 c2 |[M:2/4] [DB]4 |[M:1/4] [DF]2 | %18
[M:3/4] B,2- [B,F]2 d2 | B4 [DB]2 | B2- [FB]2 B2 | F4 F2 | z2 E2 e2 | c4 A2 | G4 [EAc]2 | %25
 [CFA]4 [A,EF]2 | B,2- [B,FB]2 c2 | d2 c2 [FB]2 | c2 B2 G2 | [DF]4 [DF]2 | G2 B2 [B,EG]2 | %31
 [B,DF]2 [FB]2 [FBd]2 | [EGc]2 [DFB]2 [CEA]2 |[M:2/4] [B,DB]4 |] %34
V:2
 z2 z2 B,,2 | B,,2 D,2[K:treble] [F,A,F]2 | F4[K:bass] z2 | z2 F2 E,2 | B,4 B,,2 | %5
 B,,2 D,2[K:treble] [F,A,F]2 | B,2 z2[K:bass] z2 | E,2 C,2 [G,B,=E]2 | [F,A,F]4 [F,A,E]2 | %9
 B,,2 D,2[K:treble] [F,A,F]2 | B,2 z2[K:bass] z2 | [E,B,]4 [E,B,]2 | [B,D]4 [B,DF]2 | %13
 [F,F]2- [F,A,F]2 [B,F]2 | z2 e2[K:bass] E,2 | z2 B,2 [F,A,E]2 |[M:2/4] [B,,B,]4 | %17
[M:1/4] [B,,B,]2 |[M:3/4] B,,2 D,2[K:treble] [F,B,F]2 | [B,DF]4[K:bass] [B,,F,]2 | %20
 B,,2 D,2 [F,DF]2 | [B,D]4 [B,D]2 | [F,A,C]2[K:treble] [A,C]2 [CF]2 | [F,A,F]4 [F,F]2 | %24
 [F,E]4 F,2 | F,4 F,2 | B,,2 D,2[K:treble] [F,A,F]2 | B,2 z2[K:bass] z2 | [E,G,E]4 [E,B,E]2 | %29
 [B,,B,]4 [B,,B,]2 | B,2 z2 z2 | z2 D2 B,,2 | E,2 F,2 F,2 |[M:2/4] B,,4 |] %34
V:3
 x6 | B,4 z2 | x6 | x6 | x6 | B,4 z2 | x6 | B,4 z2 | x6 | B,4 z2 | x6 | x6 | x6 | x6 | G4 z2 | %15
 [DB]2 z2 z2 |[M:2/4] x4 |[M:1/4] x2 |[M:3/4] [DF]2 z2 z2 | x6 | D2 z2 z2 | x6 | F4 z2 | x6 | x6 | %25
 x6 | [DF]2 z2 z2 | x6 | x6 | x6 | x6 | x6 | x6 |[M:2/4] x4 |] %34
V:4
 x6 | x4[K:treble] x2 | B,2[K:bass] [F,A,]2 [D,B,]2 | [E,B,]4 z2 | x6 | x4[K:treble] x2 | %6
 F2- [F,A,F]2[K:bass] D,2 | x6 | x6 | x4[K:treble] x2 | F2- [F,A,F]2[K:bass] [D,B,]2 | x6 | x6 | %13
 B,2 z2 z2 | [E,B,]4[K:bass] z2 | F,4 z2 |[M:2/4] x4 |[M:1/4] x2 |[M:3/4] x4[K:treble] x2 | %19
 x4[K:bass] x2 | F,4 z2 | x6 | x2[K:treble] x4 | x6 | x6 | x6 | x4[K:treble] x2 | %27
 F2- [F,A,F]2[K:bass] [D,B,]2 | x6 | x6 | [E,E]2- [E,G,E]2 E,2 | B,,4 z2 | x6 |[M:2/4] x4 |] %34

